X: 68
T:Slieve Russel
M:6/8
L:1/8
F:http://blackrosetheband.googlepages.com/ABCTUNES.ABC May 2009
C:Trad.
K:G
||:"Am"eAA Bcd|eaf "G"ged|"Am"edB cBA|"G"BAG "(Em)"Bcd|
"Am"eAA Bcd|eaf "G"ged|"Am"edB "G"cBA|"Em"BAG "Am"~A3:|
|:"Am"eaa "G"efg|"Am"agf "G"ged|"Am"eaa afg|"D"fed "G"~g3|
"Am"eaa "G"efg|"Am"age "G"ged|"Am"edB "G"cBA|"Em"BAG "Am"~A3:||

